!!!COM: Stadler, Maximilian
!!!CDT: 1748///-1833///
!!!COA: Haydn, Joseph
!!!OTL@@IT: Gioco filarmonico
!!!OTL@EN: Philharmonic Joke
!!!OTA@@IT: o sia maniera facile per comporre un infinito numero de minuetti e trio anche senza sapere il contrapunto
!!!OTA@EN: or the Art of Composing an Infinite Number of Minutes Without the Least Knowledge of Counterpoint
!!!PDT: 1781///
!!!PPR: Artaria
!!!SML: Gesellschaft der Musikfreundes, Vienna
!!!PPR2: Luigi Marescalchi
!!!PPP2: Napoli
!!!PDT2: 1790///
**kern	**kern	**kern
*Icello	*Ivioln	*Ivioln
*>[A,A,B,B,A]	*>[A,A,B,B,A]	*>[A,A,B,B,A]
*>norep[A,B]	*>norep[A,B]	*>norep[A,B]
*>A	*>A	*>A
*k[]	*k[]	*k[]
*M3/4	*M3/4	*M3/4
*MM120	*MM120	*MM120
!!section:  I
!!measure:  A
!!diceroll: 8
=152	=152	=152
4r	4e	12gg
.	.	12ee
.	.	12cc
4E	4c	4g
4C	4e	4cc
!!section:  I
!!measure:  B
!!diceroll: 10
=142	=142	=142
8BB	4r	8.gg
8G	.	.
.	.	32ff
.	.	32gg
8D	8.ff	8.aa
8G	.	.
.	16b	16ff
8C	4cc	4ee
8G	.	.
!!section:  I
!!measure:  C
!!diceroll: 4
=158	=158	=158
4F	4c	4a
4FF	4r	12aa
.	.	12gg
.	.	12ff
4r	4r	12ee
.	.	12dd
.	.	12cc
!!section:  I
!!measure:  D
!!diceroll: 5
=85	=85	=85
4G	4a	4cc
4D	16g	16b
.	16f#	16a
.	16g	16b
.	16a	16cc
4GG	4b	4dd
!!section:  I
!!measure:  E
!!diceroll: 9
=140	=140	=140
8F#	4a	2cc
8d	.	.
8A	4f#	.
8d	.	.
8F#	8cc	8aa
8d	8a	8cc
!!section:  I
!!measure:  F
!!diceroll: 6
=97	=97	=97
4BB	4d	16r
.	.	16d
.	.	16e
.	.	16f#
4r	4r	16g
.	.	16a
.	.	16b
.	.	16cc
4r	4r	16dd
.	.	16ee
.	.	16ff#
.	.	16gg
!!section:  I
!!measure:  G
!!diceroll: 6
=36	=36	=36
4D	8.cc	8.ee
.	16a	16cc
4E	4g	4b
4DD	4f#	4a
!!section:  I
!!measure:  H
!!diceroll: 10
=123	=123	=123
4G	2.g	2.g
4D	.	.
4GG	.	.
*>B	*>B	*>B
!!section:  II
!!measure:  A
!!diceroll: 10
=65	=65	=65
4r	4r	16a
.	.	16b
.	.	16cc#
.	.	16b
4A	4c#	8a
.	.	4aa
4A	4e	.
.	.	8cc#
!!section:  II
!!measure:  B
!!diceroll: 7
=71	=71	=71
8F	4dd	8aa
8F	.	8a
8E	4cc#	8gg
8E	.	8a
8D	4dd	4ff
8D	.	.
!!section:  II
!!measure:  C
!!diceroll: 6
=64	=64	=64
4BB	12B	2g
.	12d	.
.	12g	.
4BB	12B	.
.	12d	.
.	12g	.
4BB	12B	16gg
.	.	16ff
.	12d	.
.	.	16ee
.	12g	.
.	.	16dd
!!section:  II
!!measure:  D
!!diceroll: 8
=175	=175	=175
4r	4r	16dd
.	.	16cc
.	.	16b
.	.	16cc
4C	12e	2g
.	12g	.
.	12cc	.
4C	12e	.
.	12g	.
.	12cc	.
!!section:  II
!!measure:  E
!!diceroll: 5
=67	=67	=67
4C	2.cc	2.cc
4G	.	.
4c	.	.
!!section:  II
!!measure:  F
!!diceroll: 5
=160	=160	=160
4r	4r	12f
.	.	12ff
.	.	12dd
4G	4d	12b
.	.	12dd
.	.	12f
4A	4c	4e
!!section:  II
!!measure:  G
!!diceroll: 7
=23	=23	=23
4F	4c	16a
.	.	16aa
.	.	16gg
.	.	16ff
4G	4c	4ee
4G	4B	4dd
!!section:  II
!!measure:  H
!!diceroll: 5
=170	=170	=170
4C	2.cc	2.cc
4G	.	.
4c	.	.
*-	*-	*-
!!!END: 2004/11/01/
